img/twitter.svg

<svg width="16" height="11" viewBox="0 0 16 11" fill="none" xmlns="http://www.w3.org/2000/svg">
<path d="M13.3758 4.82625C14.223 4.75501 14.7977 4.36248 15.0189 3.82987C14.7133 4.0212 13.7646 4.2298 13.2406 4.03114C13.215 3.90568 13.1863 3.78651 13.1581 3.67892C12.7589 2.18493 11.392 0.981306 9.95978 1.12671C10.0757 1.07903 10.1932 1.03463 10.3104 0.994781C10.468 0.937234 11.393 0.78386 11.2473 0.451125C11.1245 0.158459 9.99446 0.672305 9.78168 0.739466C10.0626 0.631808 10.5271 0.446621 10.5769 0.117676C10.1465 0.177832 9.7241 0.385179 9.39768 0.686673C9.51552 0.55739 9.60492 0.399833 9.6239 0.230267C8.47614 0.977552 7.80567 2.48413 7.26308 3.94557C6.83703 3.52476 6.45941 3.19339 6.12065 3.00938C5.17031 2.48999 4.03402 1.94809 2.25031 1.27326C2.19556 1.87471 2.54218 2.67443 3.54095 3.20625C3.32456 3.17673 2.92884 3.24261 2.61235 3.31985C2.74124 4.00887 3.16217 4.57655 4.30172 4.85105C3.78094 4.88608 3.5118 5.00686 3.26788 5.26718C3.50507 5.74639 4.08386 6.31038 5.12503 6.19461C3.96746 6.70309 4.65304 7.64475 5.59496 7.50431C3.98811 9.1958 1.45474 9.07148 0 7.65672C3.79823 12.9314 12.0547 10.7762 13.2851 5.69563C14.207 5.70364 14.7489 5.37019 15.085 5.00257C14.5538 5.09443 13.784 4.9995 13.3758 4.82625Z" fill="white"/>
</svg>

<svg width="16" height="11" fill="none" xmlns="http://www.w3.org/2000/svg"><path d="M13.376 4.826c.847-.071 1.422-.464 1.643-.996-.306.191-1.254.4-1.778.201a6.596 6.596 0 00-.083-.352c-.4-1.494-1.766-2.698-3.198-2.552.116-.048.233-.092.35-.132.158-.058 1.083-.211.937-.544-.123-.293-1.253.221-1.465.288.28-.107.745-.292.795-.621-.43.06-.853.267-1.18.569A.832.832 0 009.625.23c-1.148.748-1.818 2.254-2.36 3.716-.427-.421-.805-.753-1.143-.937-.95-.519-2.087-1.06-3.87-1.736-.055.602.291 1.401 1.29 1.933-.216-.03-.612.037-.929.114.13.689.55 1.257 1.69 1.531-.521.035-.79.156-1.034.416.237.48.816 1.043 1.857.928-1.158.508-.472 1.45.47 1.31A3.946 3.946 0 010 7.656c3.798 5.274 12.055 3.12 13.285-1.961.922.008 1.464-.326 1.8-.693-.531.091-1.301-.003-1.71-.177z" fill="#fff"/></svg>
